groups/heteroaromatics/1,3,4-thiadiazole.svg

<?xml version='1.0' encoding='iso-8859-1'?>
<svg version='1.1' baseProfile='full'
              xmlns='http://www.w3.org/2000/svg'
                      xmlns:rdkit='http://www.rdkit.org/xml'
                      xmlns:xlink='http://www.w3.org/1999/xlink'
                  xml:space='preserve'
width='256px' height='256px' viewBox='0 0 256 256'>
<!-- END OF HEADER -->
<rect style='opacity:1.0;fill:#FFFFFF;stroke:none' width='256.0' height='256.0' x='0.0' y='0.0'> </rect>
<path class='bond-0 atom-0 atom-1' d='M 34.1,187.8 L 107.9,145.3' style='fill:none;fill-rule:evenodd;stroke:#000000;stroke-width:2.0px;stroke-linecap:butt;stroke-linejoin:miter;stroke-opacity:1' />
<path class='bond-1 atom-1 atom-2' d='M 107.9,145.3 L 170.9,173.4' style='fill:none;fill-rule:evenodd;stroke:#000000;stroke-width:2.0px;stroke-linecap:butt;stroke-linejoin:miter;stroke-opacity:1' />
<path class='bond-2 atom-1 atom-3' d='M 107.9,145.3 L 114.5,83.3' style='fill:none;fill-rule:evenodd;stroke:#000000;stroke-width:2.0px;stroke-linecap:butt;stroke-linejoin:miter;stroke-opacity:1' />
<path class='bond-2 atom-1 atom-3' d='M 121.6,137.4 L 127.2,84.7' style='fill:none;fill-rule:evenodd;stroke:#000000;stroke-width:2.0px;stroke-linecap:butt;stroke-linejoin:miter;stroke-opacity:1' />
<path class='bond-3 atom-3 atom-4' d='M 131.7,57.4 L 185.5,46.0' style='fill:none;fill-rule:evenodd;stroke:#000000;stroke-width:2.0px;stroke-linecap:butt;stroke-linejoin:miter;stroke-opacity:1' />
<path class='bond-4 atom-4 atom-5' d='M 213.4,65.7 L 242.8,116.7' style='fill:none;fill-rule:evenodd;stroke:#000000;stroke-width:2.0px;stroke-linecap:butt;stroke-linejoin:miter;stroke-opacity:1' />
<path class='bond-4 atom-4 atom-5' d='M 202.3,72.1 L 227.1,115.1' style='fill:none;fill-rule:evenodd;stroke:#000000;stroke-width:2.0px;stroke-linecap:butt;stroke-linejoin:miter;stroke-opacity:1' />
<path class='bond-5 atom-5 atom-2' d='M 242.8,116.7 L 199.1,165.2' style='fill:none;fill-rule:evenodd;stroke:#000000;stroke-width:2.0px;stroke-linecap:butt;stroke-linejoin:miter;stroke-opacity:1' />
<path d='M 241.3,114.2 L 242.8,116.7 L 240.6,119.2' style='fill:none;stroke:#000000;stroke-width:2.0px;stroke-linecap:butt;stroke-linejoin:miter;stroke-miterlimit:10;stroke-opacity:1;' />
<path class='atom-1' d='M55.3216,224.702 C58.0908,223.107 55.9647,219.415 53.1956,221.009 C50.4264,222.604 48.3003,218.911 51.0695,217.317 C53.8386,215.722 51.7125,212.03 48.9434,213.625 C46.1743,215.219 44.0482,211.527 46.8173,209.932 C49.5865,208.338 47.4604,204.646 44.6912,206.24 C41.9221,207.835 39.796,204.142 42.5652,202.548 C45.3343,200.953 43.2082,197.261 40.4391,198.855 C37.6699,200.45 35.5439,196.758 38.313,195.163 C41.0821,193.569 38.956,189.876 36.1869,191.471 C33.4178,193.065 31.2917,189.373 34.0608,187.779 C36.83,186.184 34.7039,182.492 31.9347,184.086 C29.1656,185.681 27.0395,181.988 29.8087,180.394 C32.5778,178.799 30.4517,175.107 27.6826,176.702 C24.9134,178.296 22.7874,174.604 25.5565,173.009 C28.3256,171.415 26.1995,167.722 23.4304,169.317 C20.6613,170.911 18.5352,167.219 21.3043,165.625 C24.0735,164.03 21.9474,160.338 19.1782,161.932 C16.4091,163.527 14.283,159.835 17.0522,158.24 C19.8213,156.646 17.6952,152.953 14.9261,154.548 C12.1569,156.142 10.0309,152.45 12.8,150.855' style='fill:none;stroke:#7F7F7F;stroke-width:2.0px;stroke-linecap:butt;stroke-linejoin:miter;stroke-opacity:1' />
<text x='173.7' y='200.0' class='atom-2' style='font-size:40px;font-style:normal;font-weight:normal;fill-opacity:1;stroke:none;font-family:sans-serif;text-anchor:start;fill:#000000' >S</text>
<text x='104.9' y='80.5' class='atom-3' style='font-size:40px;font-style:normal;font-weight:normal;fill-opacity:1;stroke:none;font-family:sans-serif;text-anchor:start;fill:#000000' >N</text>
<text x='188.3' y='62.9' class='atom-4' style='font-size:40px;font-style:normal;font-weight:normal;fill-opacity:1;stroke:none;font-family:sans-serif;text-anchor:start;fill:#000000' >N</text>
</svg>

<svg height="256" viewBox="0 0 256 256" width="256" xmlns="http://www.w3.org/2000/svg"><path d="m0 0h256v256h-256z" fill="#fff"/><g fill="none" stroke-width="2"><path d="m34.1 187.8 73.8-42.5" stroke="#000"/><path d="m107.9 145.3 63 28.1" stroke="#000"/><path d="m107.9 145.3 6.6-62" stroke="#000"/><path d="m121.6 137.4 5.6-52.7" stroke="#000"/><path d="m131.7 57.4 53.8-11.4" stroke="#000"/><path d="m213.4 65.7 29.4 51" stroke="#000"/><path d="m202.3 72.1 24.8 43" stroke="#000"/><path d="m242.8 116.7-43.7 48.5" stroke="#000"/><path d="m241.3 114.2 1.5 2.5-2.2 2.5" stroke="#000" stroke-miterlimit="10"/><path d="m55.322 224.702c2.769-1.595.643-5.287-2.126-3.693-2.77 1.595-4.896-2.098-2.126-3.692 2.769-1.595.643-5.287-2.127-3.692-2.769 1.594-4.895-2.098-2.126-3.693 2.77-1.594.643-5.286-2.126-3.692-2.769 1.595-4.895-2.098-2.126-3.692 2.769-1.595.643-5.287-2.126-3.693-2.769 1.595-4.895-2.097-2.126-3.692 2.769-1.594.643-5.287-2.126-3.692-2.769 1.594-4.895-2.098-2.126-3.692 2.769-1.595.643-5.287-2.126-3.693-2.769 1.595-4.895-2.098-2.126-3.692 2.769-1.595.643-5.287-2.126-3.692-2.77 1.594-4.896-2.098-2.126-3.693 2.769-1.594.643-5.287-2.127-3.692-2.769 1.594-4.895-2.098-2.126-3.692 2.77-1.595.643-5.287-2.126-3.693-2.769 1.595-4.895-2.097-2.126-3.692 2.769-1.594.643-5.287-2.126-3.692-2.769 1.594-4.895-2.098-2.126-3.693" stroke="#7f7f7f"/></g><text font-family="sans-serif" font-size="40" x="173.7" y="200">S</text><text font-family="sans-serif" font-size="40" x="104.9" y="80.5">N</text><text font-family="sans-serif" font-size="40" x="188.3" y="62.9">N</text></svg>
